src/topics/icons/distelli.svg

<svg height="236" preserveAspectRatio="xMidYMid" viewBox="0 0 256 236" width="256" xmlns="http://www.w3.org/2000/svg"><path d="m118.355277.3593253h-73.8302971c-2.6736064 0-5.1441606 1.42599197-6.4807068 3.74181526l-36.91540563 63.93882734c-1.33654619 2.3153092-1.33654619 5.1683213 0 7.4836305l36.91540563 63.9388276c1.3365462 2.315309 3.8071004 3.741815 6.4807068 3.741815h73.8302971c2.673607 0 5.144161-1.426506 6.481221-3.741815l36.914892-63.9388276c1.33706-2.3153092 1.33706-5.1683213 0-7.4836305l-36.914892-63.93882734c-1.33706-2.31582329-3.807614-3.74181526-6.481221-3.74181526" fill="#3b97d3"/><path d="m221.839422 92.6241928h-56.594506c-2.049543 0-3.943326 1.0933976-4.968354 2.8679196l-28.297253 49.0126906c-1.024514 1.775036-1.024514 3.961832 0 5.736868l28.297253 49.012176c1.025028 1.775037 2.918811 2.868434 4.968354 2.868434h56.594506c2.049542 0 3.943325-1.093397 4.968353-2.868434l28.297253-49.012176c1.024514-1.775036 1.024514-3.961832 0-5.736868l-28.297253-49.0126906c-1.025028-1.774522-2.918811-2.8679196-4.968353-2.8679196" fill="#4eba6f"/><path d="m120.289157 151.740659h-43.1776389c-1.563245 0-3.0082571.834313-3.7901366 2.188337l-21.5883052 37.39245c-.7818795 1.354024-.7818795 3.02265 0 4.376674l21.5883052 37.39245c.7818795 1.354024 2.2268916 2.188338 3.7901366 2.188338h43.1776389c1.563245 0 3.008257-.834314 3.790136-2.188338l21.588305-37.39245c.78188-1.354024.78188-3.02265 0-4.376674l-21.588305-37.39245c-.781879-1.354024-2.226891-2.188337-3.790136-2.188337" fill="#f0c419"/></svg>

<?xml version="1.0" encoding="UTF-8" standalone="no"?>
<svg width="256px" height="236px" viewBox="0 0 256 236" version="1.1" xmlns="http://www.w3.org/2000/svg" xmlns:xlink="http://www.w3.org/1999/xlink" preserveAspectRatio="xMidYMid">
	<g>
		<path d="M118.355277,0.359325301 L44.5249799,0.359325301 C41.8513735,0.359325301 39.3808193,1.78531727 38.0442731,4.10114056 L1.12886747,68.0399679 C-0.207678715,70.3552771 -0.207678715,73.2082892 1.12886747,75.5235984 L38.0442731,139.462426 C39.3808193,141.777735 41.8513735,143.204241 44.5249799,143.204241 L118.355277,143.204241 C121.028884,143.204241 123.499438,141.777735 124.836498,139.462426 L161.75139,75.5235984 C163.08845,73.2082892 163.08845,70.3552771 161.75139,68.0399679 L124.836498,4.10114056 C123.499438,1.78531727 121.028884,0.359325301 118.355277,0.359325301" fill="#3B97D3"></path>
		<path d="M221.839422,92.6241928 L165.244916,92.6241928 C163.195373,92.6241928 161.30159,93.7175904 160.276562,95.4921124 L131.979309,144.504803 C130.954795,146.279839 130.954795,148.466635 131.979309,150.241671 L160.276562,199.253847 C161.30159,201.028884 163.195373,202.122281 165.244916,202.122281 L221.839422,202.122281 C223.888964,202.122281 225.782747,201.028884 226.807775,199.253847 L255.105028,150.241671 C256.129542,148.466635 256.129542,146.279839 255.105028,144.504803 L226.807775,95.4921124 C225.782747,93.7175904 223.888964,92.6241928 221.839422,92.6241928" fill="#4EBA6F"></path>
		<path d="M120.289157,151.740659 L77.1115181,151.740659 C75.5482731,151.740659 74.103261,152.574972 73.3213815,153.928996 L51.7330763,191.321446 C50.9511968,192.67547 50.9511968,194.344096 51.7330763,195.69812 L73.3213815,233.09057 C74.103261,234.444594 75.5482731,235.278908 77.1115181,235.278908 L120.289157,235.278908 C121.852402,235.278908 123.297414,234.444594 124.079293,233.09057 L145.667598,195.69812 C146.449478,194.344096 146.449478,192.67547 145.667598,191.321446 L124.079293,153.928996 C123.297414,152.574972 121.852402,151.740659 120.289157,151.740659" fill="#F0C419"></path>
	</g>
</svg>
